projects/elonkit/src/assets/elonkit/empty-state/chat.svg

<svg width="56" height="56" viewBox="0 0 56 56" fill="none" xmlns="http://www.w3.org/2000/svg">
  <path fill-rule="evenodd" clip-rule="evenodd"
    d="M4 28C4 31.9395 5.23975 35.6257 7.39651 38.7761L5.5 47.5L13.7248 44.883C17.7144 47.47 22.653 49 28 49C41.2548 49 52 39.598 52 28C52 16.402 41.2548 7 28 7C22.0709 7 16.644 8.88125 12.4564 11.9988C16.0005 9.50073 20.545 8 25.5 8C36.8218 8 46 15.835 46 25.5C46 35.165 36.8218 43 25.5 43C14.1782 43 5 35.165 5 25.5C5 22.2094 6.06393 19.1309 7.91416 16.5015C5.4393 19.8047 4 23.7553 4 28Z"
    data-mono-a="A50" />
  <path fill-rule="evenodd" clip-rule="evenodd"
    d="M28 49C22.653 49 17.7144 47.47 13.7248 44.883L5.5 47.5L7.39651 38.7761C5.23975 35.6257 4 31.9395 4 28C4 16.402 14.7452 7 28 7C41.2548 7 52 16.402 52 28C52 39.598 41.2548 49 28 49ZM2 28C2 32.0647 3.1918 35.8747 5.26392 39.1711L2.81103 50.4544L13.4517 47.0687C17.6158 49.558 22.6272 51 28 51C42.1002 51 54 40.9451 54 28C54 15.0549 42.1002 5 28 5C13.8998 5 2 15.0549 2 28ZM18 28C18 29.1046 17.1046 30 16 30C14.8954 30 14 29.1046 14 28C14 26.8954 14.8954 26 16 26C17.1046 26 18 26.8954 18 28ZM20 28C20 30.2091 18.2091 32 16 32C13.7909 32 12 30.2091 12 28C12 25.7909 13.7909 24 16 24C18.2091 24 20 25.7909 20 28ZM28 30C29.1046 30 30 29.1046 30 28C30 26.8954 29.1046 26 28 26C26.8954 26 26 26.8954 26 28C26 29.1046 26.8954 30 28 30ZM28 32C30.2091 32 32 30.2091 32 28C32 25.7909 30.2091 24 28 24C25.7909 24 24 25.7909 24 28C24 30.2091 25.7909 32 28 32ZM42 28C42 29.1046 41.1046 30 40 30C38.8954 30 38 29.1046 38 28C38 26.8954 38.8954 26 40 26C41.1046 26 42 26.8954 42 28ZM44 28C44 30.2091 42.2091 32 40 32C37.7909 32 36 30.2091 36 28C36 25.7909 37.7909 24 40 24C42.2091 24 44 25.7909 44 28Z"
    data-mono-a="A400" />
</svg>

<svg width="56" height="56" fill="none" xmlns="http://www.w3.org/2000/svg"><path fill-rule="evenodd" clip-rule="evenodd" d="M4 28c0 3.94 1.24 7.626 3.397 10.776L5.5 47.5l8.225-2.617C17.715 47.47 22.653 49 28 49c13.255 0 24-9.402 24-21S41.255 7 28 7c-5.93 0-11.356 1.881-15.544 4.999C16 9.5 20.545 8 25.5 8 36.822 8 46 15.835 46 25.5S36.822 43 25.5 43 5 35.165 5 25.5c0-3.29 1.064-6.37 2.914-8.998C5.44 19.805 4 23.755 4 28z" fill="#000" fill-opacity=".04"/><path fill-rule="evenodd" clip-rule="evenodd" d="M28 49c-5.347 0-10.286-1.53-14.275-4.117L5.5 47.5l1.897-8.724C5.24 35.626 4 31.94 4 28 4 16.402 14.745 7 28 7s24 9.402 24 21-10.745 21-24 21zM2 28c0 4.065 1.192 7.875 3.264 11.171L2.81 50.454l10.64-3.385C17.617 49.558 22.628 51 28 51c14.1 0 26-10.055 26-23S42.1 5 28 5 2 15.055 2 28zm16 0a2 2 0 11-4 0 2 2 0 014 0zm2 0a4 4 0 11-8 0 4 4 0 018 0zm8 2a2 2 0 100-4 2 2 0 000 4zm0 2a4 4 0 100-8 4 4 0 000 8zm14-4a2 2 0 11-4 0 2 2 0 014 0zm2 0a4 4 0 11-8 0 4 4 0 018 0z" fill="#000" fill-opacity=".22"/></svg>
